icons/camera-line.svg

<svg viewBox="0 0 24 24" fill="currentColor" xmlns="http://www.w3.org/2000/svg">
    <path d="M9.82843 5L7.82843 7H4V19H20V7H16.1716L14.1716 5H9.82843ZM9 3H15L17 5H21C21.5523 5 22 5.44772 22 6V20C22 20.5523 21.5523 21 21 21H3C2.44772 21 2 20.5523 2 20V6C2 5.44772 2.44772 5 3 5H7L9 3ZM12 18C8.96243 18 6.5 15.5376 6.5 12.5C6.5 9.46243 8.96243 7 12 7C15.0376 7 17.5 9.46243 17.5 12.5C17.5 15.5376 15.0376 18 12 18ZM12 16C13.933 16 15.5 14.433 15.5 12.5C15.5 10.567 13.933 9 12 9C10.067 9 8.5 10.567 8.5 12.5C8.5 14.433 10.067 16 12 16Z"/>
</svg>

<svg xmlns="http://www.w3.org/2000/svg" viewBox="0 0 24 24">
    <g>
        <path fill="none" d="M0 0h24v24H0z"/>
        <path d="M9.828 5l-2 2H4v12h16V7h-3.828l-2-2H9.828zM9 3h6l2 2h4a1 1 0 0 1 1 1v14a1 1 0 0 1-1 1H3a1 1 0 0 1-1-1V6a1 1 0 0 1 1-1h4l2-2zm3 15a5.5 5.5 0 1 1 0-11 5.5 5.5 0 0 1 0 11zm0-2a3.5 3.5 0 1 0 0-7 3.5 3.5 0 0 0 0 7z"/>
    </g>
</svg>
